X: 3383
T: Bennett
R: reel
M: 4/4
K: Eminor
|:E2DE FED2|E2G2 A2B2|E2DE FGA2|B4 {d^d}e4|
c2BA GEGA|B2BA GFE2|GAB2 FED2|1 E4 G2F2:|2 E4 E2F2||
|:G2FG AGF2|G2A2 B2c2|d2cd edc2|d4 B2A2|
G2FG AGF2|E2G2 A2B2|E2DE FED2|1 E4 E2F2:|2 E4 G2F2||

